X:1
T:Let Us with a Gladsome Mind
T:Tune: Genevan Psalter; 1562; harm. Claude Goudimel, 1564 Text under copyright; for copyrighted material see Psalter Hymnal 136
T:77 77 GENEVAN 136 www.hymnary.org/text/let_us_with_a_gladsome_mind 
T:Let Us with a Gladsome Mind
T:This music is in the public domain. You may freely use this score for personal and congregational worship. If you reproduce the score, please credit Hymnary.org as the source. 
T:This music is in the public domain. You may freely use this score for personal and congregational worship. If you reproduce the score, please credit Hymnary.org as the source. 
Z:This music is in the public domain. You may freely use this score for personal and congregational worship. If you reproduce the score, please credit Hymnary.org as the source.
%%score ( 1 2 ) ( 3 4 )
L:1/8
M:6/4
K:G
V:1 treble nm="SOPRANO ALTO" snm="S. A."
V:2 treble 
V:3 bass nm="TENOR BASS" snm="T. B."
V:4 bass 
V:1
 D2 D2 GA Bc d4 | B2 d2 | cB G2 A2 G4 | B2 A2 GG |1 cc B4 | G2 A2 FG EE D4 |] %6
V:2
 B,2 B,2 DF GG F4 | G2 G2 | ED(E G2) F G4 | G2 F2 EE |1 GG G4 | E2 E2 DD D^C D4 |] %6
V:3
 G,2 G,2 DD DG, A,4 | D2 B,2 | CG, B,2 D2 B,4 | D2 D2 B,B, |1 EE D4 | C2 C2 B,B, A,A, F,4 |] %6
V:4
 G,,2 G,,2 G,,D, G,E, D,4 | G,,2 G,,2 | A,,B,, E,2 D,2 G,,4 | G,2 D,2 E,E, |1 C,C, G,,4 | %5
 C,2 A,,2 B,,G,, A,,A,, D,4 |] %6

